public/svg/angle-left.svg

<svg xmlns="http://www.w3.org/2000/svg" viewBox="0 0 192 512"><!-- Font Awesome Pro 5.15.4 by @fontawesome - https://fontawesome.com License - https://fontawesome.com/license (Commercial License) --><path d="M25.1 247.5l117.8-116c4.7-4.7 12.3-4.7 17 0l7.1 7.1c4.7 4.7 4.7 12.3 0 17L64.7 256l102.2 100.4c4.7 4.7 4.7 12.3 0 17l-7.1 7.1c-4.7 4.7-12.3 4.7-17 0L25 264.5c-4.6-4.7-4.6-12.3.1-17z"/></svg>

<svg width="192" height="487" viewBox="0 0 192 487" fill="none" xmlns="http://www.w3.org/2000/svg">
<path d="M25.1 247.5L142.9 131.5C147.6 126.8 155.2 126.8 159.9 131.5L167 138.6C171.7 143.3 171.7 150.9 167 155.6L64.7 256L166.9 356.4C171.6 361.1 171.6 368.7 166.9 373.4L159.8 380.5C155.1 385.2 147.5 385.2 142.8 380.5L25 264.5C20.4 259.8 20.4 252.2 25.1 247.5Z" fill="#08AF89"/>
</svg>
